X: 25660
T: Martin Rochford's
R: reel
M: 4/4
K: Fmajor
F2 FE FGAB|c2 AG Ad d2|cAGA F3 d|cAGc ACDE|
FACD FGAc|c2 AG Ad d2|cAGA F3 d|cAGc AD D2||
f2 fd edce|dAAG Acde|f2 df edcA|cAGc AD D2|
f2 fd edce|dAAG Acde|fage fedA|cAGc ACDE||

